!!!OTL: Xinsijun laidao bantajie
!!!ARE: Asia, China,ÿAnhui Laian
!! III, 553, 2)
!!!SCT: C2056
!!!YEM: Copyright 1995, estate of Helmut Schaffrath.
**kern
*ICvox
*Ivox
*M2/4
*k[b-]
*F:
{8cc
16cc
16cc
8dd
8ff
=1
8a
16g
16a
8f
8d
=2
8cc
16a
16cc
8cc
8d
=3
8f
16e
16d
4c}
=4
{8ff
8dd
8cc
8ff
=5
4.dd
8a
=6
2cc}
=7
{8ff
8dd
4cc
=8
4.f
8a
=9
8g
8d
8c
8r}
==
!!!AGN: Xiaodiao
!!!AMT: simple duple
!!!AIN: vox
!!!EED: Helmut Schaffrath
!!!EEV: 1.0
*-
